frontend/public/svg/interface/phone-setting.svg

<svg width="148" height="170" viewBox="0 0 148 170" fill="none" xmlns="http://www.w3.org/2000/svg">
<g clip-path="url(#clip0)">
<path d="M117.9 41.4615C118.716 41.7165 119.331 41.9468 119.961 42.0974C122.094 42.6061 123.144 44.0201 123.326 46.1204C123.46 47.6666 123.535 49.2193 123.586 50.7708C123.679 53.4512 123.663 53.4516 126.63 55.1451C127.285 54.2088 127.931 53.2208 128.642 52.2845C130.449 49.9104 132.675 49.1855 135.003 50.8842C138.305 53.3293 141.43 56.0044 144.354 58.8897C146.009 60.5008 145.668 62.9497 143.768 64.8593C141.974 66.6619 139.931 68.2198 137.791 70.0658C137.95 70.9502 138.14 72.0033 138.357 73.203C139.708 73.203 140.914 73.1829 142.119 73.2069C144.901 73.2634 146.696 74.4047 147.049 77.1682C147.546 81.0107 147.732 84.887 147.605 88.76C147.51 91.5066 145.41 93.0028 142.792 93.5758C141.82 93.8223 140.815 93.9067 139.816 93.8249C137.414 93.5304 136.074 94.599 135.387 96.8226C136.728 97.8556 138.136 98.7692 139.342 99.9002C142.399 102.764 142.682 106.018 139.727 108.919C137.44 111.179 134.868 113.131 132.075 114.727C128.173 116.926 125.741 115.985 123.538 112.106C123.213 111.536 122.916 110.951 122.606 110.375C120.831 110.171 120.01 110.741 120.233 112.555C120.338 113.548 120.346 114.549 120.257 115.544C119.905 120.227 119.051 121.223 114.493 122.339C113.982 127.48 113.64 132.673 112.904 137.809C112.276 142.309 111.383 146.768 110.229 151.163C108.238 158.62 103.159 163.273 95.9395 165.752C87.4038 168.682 78.5642 169.59 69.6246 169.335C56.0555 168.946 42.4782 168.506 29.0283 166.416C23.4221 165.544 17.8823 164.502 12.7022 161.97C6.35585 158.867 2.75631 153.887 2.10002 146.938C1.65251 142.198 1.43786 137.423 1.38453 132.663C1.30452 125.122 1.46973 117.581 1.49315 110.039C1.52112 101.268 1.44762 92.4961 1.52568 83.7255C1.65186 69.5156 1.73902 55.2997 2.09416 41.0956C2.28539 33.4521 2.77323 25.8067 4.63739 18.3137C6.57961 10.5093 11.0319 5.23352 19.1286 3.56402C22.4911 2.81728 25.9009 2.30068 29.334 2.01824C48.1097 0.768542 66.9064 0.010818 85.7276 0.538986C88.7307 0.623495 91.7188 0.989789 94.6529 1.63298C107.57 4.47431 114.224 11.5214 116.276 24.5777C116.946 28.8426 117.178 33.1758 117.594 37.4797C117.726 38.7858 117.799 40.0989 117.9 41.4615ZM108.433 41.3871C107.87 35.3106 107.543 29.55 106.758 23.8524C105.693 16.1187 101.129 11.2917 93.542 9.34513C92.2645 8.96192 90.9584 8.68265 89.6361 8.50967C84.8761 8.08986 80.0967 7.37774 75.342 7.49518C61.2233 7.84232 47.1126 8.4588 33.0032 9.14009C29.4555 9.38374 25.9316 9.89711 22.4621 10.6754C17.4088 11.7045 14.1879 14.7293 13.2259 19.9298C12.9007 21.6707 12.2729 23.3755 12.1253 25.1255C11.3486 34.2919 10.345 43.4561 10.0438 52.6413C9.28933 75.6018 8.87305 98.5726 8.31432 121.539C8.22391 126.466 8.69684 131.387 9.72383 136.207L102.862 131.514C103.093 128.067 103.304 124.917 103.507 121.885C98.6141 120.366 97.8791 119.594 97.4882 114.723C97.3152 112.569 96.5548 111.471 94.3778 111.447C93.6012 112.647 92.9644 113.826 92.1442 114.86C89.9977 117.567 87.6444 117.787 84.9347 115.647C83.4536 114.479 81.8717 113.416 80.5 112.131C78.8199 110.691 77.3134 109.06 76.0119 107.272C74.3474 104.747 75.1013 102.42 77.6549 100.759C78.5525 100.175 79.4606 99.6069 80.3712 99.0275C78.7633 96.6805 78.7633 96.6805 76.2448 96.5683C73.0329 96.4262 71.1759 95.4172 70.9111 93.1054C70.4246 89.2551 70.1859 85.3781 70.1957 81.4973C70.2431 78.0999 72.1808 76.3383 75.6288 75.8484C76.9128 75.6661 78.2241 75.6752 79.5412 75.596C79.7721 74.7025 79.962 73.9518 80.1598 73.203C80.3549 72.4724 80.5533 71.7438 80.7549 71.0002C79.5705 69.9906 78.4316 69.1042 77.3902 68.1154C74.6063 65.4726 74.5933 63.0341 77.4819 60.49C80.1487 58.1424 82.9105 55.8953 85.712 53.7074C88.1238 51.8257 90.3652 51.9854 92.5923 54.0676C93.3787 54.8027 94.0604 55.648 94.8155 56.4682C95.92 55.4702 97.1019 54.5616 98.3514 53.7508C99.7823 52.9722 100.99 52.3547 100.867 50.3627C100.779 48.9521 101.207 47.5077 101.406 46.0802C101.422 45.9705 101.439 45.8603 101.464 45.7519C102.054 43.1565 103.083 42.1506 105.645 41.7184C106.397 41.5913 107.164 41.5369 108.433 41.3877V41.3871ZM10.9766 142.346C10.7697 148.455 12.9136 152.304 18.3318 154.409C21.653 155.654 25.0948 156.551 28.6016 157.087C43.2717 159.484 58.0959 159.314 72.8969 159.394C79.0267 159.465 85.1292 158.57 90.9792 156.742C98.5244 154.348 102.599 147.558 101.224 139.277C71.1323 139.406 41.0511 140.827 10.9766 142.346ZM132.993 105.04C131.939 103.691 130.962 102.728 130.343 101.572C129.617 100.352 129.147 98.9989 128.959 97.5935C128.747 94.7801 134.131 87.3902 136.83 86.4196C137.545 86.16 138.261 85.8966 139.088 85.5949V79.8025C137.648 79.5638 136.337 79.4067 135.055 79.116C133.705 78.8091 132.352 78.231 132.301 76.6394C132.124 71.2454 130.382 65.3739 136.472 61.6986C136.584 61.6338 136.545 61.3139 136.606 60.9253L132.515 57.5682C131.316 58.6596 130.361 59.5659 129.366 60.4275C126.928 62.5402 125.064 62.5794 122.536 60.6341C121.888 60.0295 121.155 59.5223 120.36 59.1285C117.214 57.9606 116.814 55.4509 117.016 52.6356C117.109 51.3456 117.342 50.066 117.576 48.3271C115.885 48.3271 114.461 48.2394 113.051 48.3426C107.746 48.7319 107.967 47.3137 106.713 53.6491C106.449 54.9864 105.906 56.5422 104.957 57.4123C103.044 59.0934 100.966 60.5774 98.754 61.8415C93.6493 64.8867 92.6301 64.7093 89.318 61.6058C88.8367 61.2163 88.3306 60.8584 87.8031 60.534L83.0855 64.7354C83.6592 65.407 84.2706 66.0468 84.9158 66.6509C86.8353 68.2322 87.5078 70.0684 86.7286 72.5496C86.2733 74.0037 86.2928 75.6142 86.1471 77.1565C85.8681 80.112 85.4804 80.5039 82.5554 80.7356C80.7107 80.8816 78.8693 81.06 76.6682 81.2547C77.0344 84.0227 77.3453 86.3677 77.6439 88.6133C78.0933 88.7373 78.5493 88.8365 79.0098 88.9105C84.6823 89.3238 84.1249 89.5068 85.9045 94.8268C87.3517 99.1579 86.0313 101.75 82.4838 104.355L87.0232 108.106C88.0828 106.89 88.836 105.927 89.6901 105.063C92.2268 102.494 94.0292 102.279 97.0862 104.182C98.2141 104.884 99.2067 105.825 100.379 106.428C100.982 106.714 101.498 107.156 101.875 107.707C102.251 108.257 102.475 108.897 102.522 109.562C102.752 111.419 102.951 113.281 103.193 115.402H112.836C113.128 112.919 113.44 110.617 113.659 108.306C113.676 107.406 114.01 106.541 114.601 105.861C115.193 105.182 116.004 104.731 116.895 104.587C121.222 103.632 125.543 102.824 128.499 107.453C128.548 107.527 128.694 107.54 129.02 107.674L132.993 105.04Z" fill="black"/>
<path d="M57.9642 153.449C55.3982 153.461 52.7204 150.862 52.7334 148.371C52.7457 146.082 54.6678 144.525 57.6026 144.427C58.2057 144.387 58.8107 144.468 59.3819 144.665C59.9532 144.862 60.4791 145.171 60.9286 145.574C61.3782 145.977 61.7422 146.466 61.9993 147.011C62.2563 147.557 62.4012 148.149 62.4254 148.751C62.4496 149.354 62.3525 149.955 62.14 150.519C61.9274 151.084 61.6037 151.6 61.1878 152.037C60.772 152.475 60.2725 152.825 59.7189 153.067C59.1652 153.309 58.5686 153.438 57.9642 153.446V153.449Z" fill="black"/>
<path d="M129.723 79.1298C129.723 92.2925 120.585 101.458 105.902 100.858C103.242 100.708 100.623 100.127 98.1505 99.1392C90.0434 95.9877 86.6377 88.5018 89.3448 80.2023C90.8278 75.6552 93.6377 71.9677 97.1898 68.8396C99.2595 67.015 101.288 65.0217 103.663 63.7007C105.507 62.6761 107.845 62.3602 110.005 62.1311C111.741 61.9475 113.543 62.3414 115.31 62.5205C123.99 63.4082 128.676 68.1005 129.591 76.8289C129.683 77.712 129.695 78.6016 129.723 79.1298ZM120.463 80.5333C120.413 79.6495 120.398 78.7619 120.307 77.8827C119.953 74.5871 118.381 72.3759 114.978 71.5323C106.399 69.4047 104.397 69.2406 98.5284 77.5985C98.2747 77.9599 98.0692 78.3557 97.8519 78.7418C93.587 86.3204 96.2135 91.8434 104.84 92.9439C111.792 93.8302 120.603 90.6969 120.463 80.5333Z" fill="black"/>
</g>
<defs>
<clipPath id="clip0">
<rect width="147" height="170" fill="white" transform="translate(0.777344)"/>
</clipPath>
</defs>
</svg>

<svg xmlns="http://www.w3.org/2000/svg" width="148" height="170" fill="none" viewBox="0 0 148 170"><g fill="#000" clip-path="url(#a)"><path d="M117.9 41.462c.816.255 1.431.485 2.061.635 2.133.51 3.183 1.923 3.365 4.023.134 1.547.209 3.1.26 4.65.093 2.681.077 2.682 3.044 4.375.655-.936 1.301-1.924 2.012-2.86 1.807-2.375 4.033-3.1 6.361-1.4a87 87 0 0 1 9.351 8.005c1.655 1.61 1.314 4.06-.586 5.97-1.794 1.802-3.837 3.36-5.977 5.206l.566 3.137c1.351 0 2.557-.02 3.762.004 2.782.056 4.577 1.198 4.93 3.961a72 72 0 0 1 .556 11.592c-.095 2.747-2.195 4.243-4.813 4.816a9.1 9.1 0 0 1-2.976.249c-2.402-.295-3.742.774-4.429 2.998 1.341 1.033 2.749 1.946 3.955 3.077 3.057 2.864 3.34 6.118.385 9.019a37 37 0 0 1-7.652 5.808c-3.902 2.199-6.334 1.258-8.537-2.621-.325-.57-.622-1.155-.932-1.731-1.775-.204-2.596.366-2.373 2.18.105.993.113 1.994.024 2.989-.352 4.683-1.206 5.679-5.764 6.795-.511 5.141-.853 10.334-1.589 15.47a115 115 0 0 1-2.675 13.354c-1.991 7.457-7.07 12.11-14.29 14.589-8.535 2.93-17.375 3.838-26.314 3.583-13.57-.389-27.147-.829-40.597-2.919-5.606-.872-11.146-1.914-16.326-4.446-6.346-3.103-9.946-8.083-10.602-15.032-.447-4.74-.662-9.515-.715-14.275-.08-7.541.085-15.082.108-22.624.028-8.771-.045-17.543.033-26.314.126-14.21.213-28.425.568-42.63.191-7.643.68-15.288 2.543-22.781 1.943-7.805 6.395-13.08 14.492-14.75a76 76 0 0 1 10.205-1.546C48.11.768 66.906.011 85.728.54c3.003.084 5.99.45 8.925 1.094 12.917 2.841 19.571 9.888 21.623 22.945.67 4.265.902 8.598 1.318 12.902.132 1.306.205 2.619.306 3.982m-9.467-.075c-.563-6.076-.89-11.837-1.675-17.535-1.065-7.733-5.629-12.56-13.216-14.507a25 25 0 0 0-3.906-.835c-4.76-.42-9.54-1.132-14.294-1.015-14.119.347-28.23.964-42.339 1.645a70 70 0 0 0-10.54 1.535c-5.054 1.03-8.275 4.054-9.237 9.255-.325 1.74-.953 3.445-1.1 5.195-.777 9.167-1.781 18.331-2.082 27.516-.755 22.96-1.171 45.932-1.73 68.898a64.7 64.7 0 0 0 1.41 14.668l93.138-4.693.645-9.629c-4.893-1.519-5.628-2.291-6.019-7.162-.173-2.154-.933-3.252-3.11-3.276-.777 1.2-1.414 2.379-2.234 3.413-2.146 2.707-4.5 2.927-7.21.787-1.48-1.168-3.062-2.231-4.434-3.516a28.5 28.5 0 0 1-4.488-4.859c-1.665-2.525-.91-4.852 1.643-6.513.897-.584 1.806-1.152 2.716-1.731-1.608-2.348-1.608-2.348-4.126-2.46-3.212-.142-5.07-1.15-5.334-3.463a91 91 0 0 1-.715-11.608c.047-3.397 1.985-5.159 5.433-5.649 1.284-.182 2.595-.173 3.912-.252.231-.894.421-1.644.619-2.393.195-.73.393-1.46.595-2.203-1.184-1.01-2.323-1.896-3.365-2.885-2.784-2.642-2.797-5.08.092-7.625 2.667-2.348 5.429-4.595 8.23-6.783 2.412-1.881 4.653-1.722 6.88.36.787.736 1.468 1.581 2.224 2.401a28 28 0 0 1 3.535-2.717c1.431-.779 2.639-1.396 2.516-3.388-.088-1.41.34-2.855.539-4.283q.022-.165.058-.328c.59-2.596 1.619-3.601 4.181-4.034.752-.127 1.519-.181 2.788-.33M10.977 142.346c-.207 6.109 1.937 9.958 7.355 12.063a51.4 51.4 0 0 0 10.27 2.678c14.67 2.397 29.494 2.227 44.295 2.307a58.4 58.4 0 0 0 18.082-2.652c7.545-2.394 11.62-9.184 10.245-17.465-30.092.129-60.173 1.55-90.247 3.069m122.016-37.306c-1.054-1.349-2.031-2.312-2.65-3.468a10.5 10.5 0 0 1-1.384-3.978c-.212-2.814 5.172-10.204 7.871-11.174.715-.26 1.431-.523 2.258-.825v-5.793c-1.44-.238-2.751-.395-4.033-.686-1.35-.307-2.703-.885-2.754-2.477-.177-5.394-1.919-11.265 4.171-14.94.112-.065.073-.385.134-.774l-4.091-3.357c-1.199 1.092-2.154 1.998-3.149 2.86-2.438 2.112-4.302 2.151-6.83.206a9.1 9.1 0 0 0-2.176-1.505c-3.146-1.168-3.546-3.678-3.344-6.493.093-1.29.326-2.57.56-4.309-1.691 0-3.115-.088-4.525.016-5.305.389-5.084-1.03-6.338 5.306-.264 1.337-.807 2.893-1.756 3.763a38 38 0 0 1-6.203 4.43c-5.105 3.045-6.124 2.867-9.436-.236q-.722-.585-1.515-1.072l-4.718 4.201a24 24 0 0 0 1.83 1.916c1.92 1.581 2.593 3.417 1.814 5.899-.456 1.454-.436 3.064-.582 4.606-.279 2.956-.667 3.348-3.592 3.58-1.844.146-3.686.324-5.887.519.366 2.768.677 5.113.976 7.358q.675.187 1.366.297c5.672.414 5.115.597 6.894 5.917 1.448 4.33.127 6.923-3.42 9.528l4.54 3.751c1.059-1.216 1.812-2.179 2.666-3.043 2.537-2.569 4.34-2.784 7.396-.881 1.128.702 2.12 1.643 3.293 2.246a3.77 3.77 0 0 1 2.143 3.134c.23 1.857.429 3.719.671 5.84h9.643c.292-2.483.604-4.785.823-7.096.017-.9.351-1.765.942-2.445a3.86 3.86 0 0 1 2.294-1.274c4.327-.955 8.648-1.763 11.604 2.866.049.074.195.087.521.221z"/><path d="M57.964 153.449c-2.566.012-5.244-2.587-5.23-5.078.012-2.289 1.934-3.846 4.869-3.944a4.54 4.54 0 0 1 3.326 1.147 4.52 4.52 0 0 1 1.496 3.177 4.5 4.5 0 0 1-1.237 3.286 4.52 4.52 0 0 1-3.224 1.409zm71.759-74.319c0 13.163-9.138 22.328-23.821 21.728a24.6 24.6 0 0 1-7.752-1.719c-8.107-3.151-11.512-10.637-8.805-18.937 1.483-4.547 4.293-8.234 7.845-11.362 2.07-1.825 4.098-3.818 6.473-5.14 1.844-1.024 4.182-1.34 6.342-1.569 1.736-.184 3.538.21 5.305.39 8.68.887 13.366 5.58 14.281 14.308.092.883.104 1.773.132 2.3m-9.26 1.403c-.05-.883-.065-1.771-.156-2.65-.354-3.296-1.926-5.507-5.329-6.35-8.579-2.128-10.581-2.292-16.45 6.066-.253.36-.459.757-.676 1.143-4.265 7.578-1.639 13.101 6.988 14.202 6.952.886 15.763-2.247 15.623-12.41"/></g><defs><clipPath id="a"><path fill="#fff" d="M.777 0h147v170h-147z"/></clipPath></defs></svg>
